apps/www/public/images/logos/publicity/fixed-width/chatbase.svg

<svg width="180" height="60" viewBox="0 0 180 60" fill="none" xmlns="http://www.w3.org/2000/svg">
<g clip-path="url(#clip0_2053_10667)">
<path fill-rule="evenodd" clip-rule="evenodd" d="M31.3333 16H45.2143C49.2644 16 52.5476 19.2203 52.5476 23.1927V36.8073C52.5476 40.7797 49.2644 44 45.2143 44H31.3333C27.2832 44 24 40.7797 24 36.8073V23.1927C24 19.2203 27.2832 16 31.3333 16ZM41.5149 27.9371H46.131C46.0437 26.911 45.7954 26.0004 45.3862 25.2054C44.977 24.4103 44.4368 23.7415 43.7656 23.1989C43.0945 22.651 42.3143 22.2346 41.4249 21.9499C40.5355 21.6652 39.5615 21.5229 38.503 21.5229C36.997 21.5229 35.633 21.8479 34.4107 22.4979C33.1885 23.1425 32.2173 24.0961 31.497 25.3585C30.7768 26.6155 30.4167 28.1627 30.4167 29.9999C30.4167 31.8264 30.7686 33.3709 31.4725 34.6333C32.1818 35.8957 33.1449 36.852 34.3616 37.502C35.5839 38.152 36.9643 38.477 38.503 38.477C39.7307 38.477 40.8083 38.2916 41.7359 37.921C42.6635 37.5503 43.441 37.0614 44.0685 36.4544C44.7014 35.842 45.1897 35.1759 45.5335 34.456C45.8772 33.7308 46.0764 33.019 46.131 32.3206L41.5149 32.2884C41.4603 32.643 41.3539 32.9626 41.1957 33.2473C41.0429 33.5267 40.8438 33.7657 40.5982 33.9645C40.3527 34.1632 40.0635 34.3163 39.7307 34.4238C39.3978 34.5259 39.0214 34.5769 38.6012 34.5769C37.8646 34.5769 37.2344 34.4077 36.7106 34.0692C36.1868 33.7254 35.7857 33.2151 35.5075 32.5382C35.2346 31.856 35.0982 31.0099 35.0982 29.9999C35.0982 29.0437 35.2319 28.2245 35.4993 27.5422C35.7721 26.86 36.1704 26.3362 36.6942 25.9709C37.2235 25.6056 37.87 25.4229 38.6339 25.4229C39.0705 25.4229 39.4606 25.4847 39.8043 25.6083C40.1481 25.7265 40.44 25.8984 40.6801 26.124C40.9256 26.3443 41.1166 26.6075 41.253 26.9137C41.3949 27.2199 41.4822 27.561 41.5149 27.9371Z" fill="#7E7E7E"/>
<path d="M75.087 27.2277H72.4944C72.3949 26.692 72.2092 26.2206 71.9379 25.8135C71.6663 25.4064 71.3339 25.0609 70.9408 24.777C70.5474 24.4931 70.1069 24.2788 69.6195 24.1342C69.1376 23.9895 68.6253 23.9172 68.0824 23.9172C67.1018 23.9172 66.2239 24.1556 65.4484 24.6323C64.6784 25.1091 64.069 25.8081 63.6203 26.7295C63.1772 27.6509 62.9556 28.7758 62.9556 30.1043C62.9556 31.4434 63.1772 32.5737 63.6203 33.4951C64.069 34.4165 64.681 35.1128 65.4565 35.5842C66.232 36.0556 67.1047 36.2913 68.074 36.2913C68.6114 36.2913 69.1211 36.2217 69.603 36.0824C70.0904 35.9378 70.5307 35.7262 70.9241 35.4476C71.3174 35.1691 71.6498 34.8289 71.9211 34.4272C72.1982 34.0201 72.3892 33.554 72.4944 33.029L75.087 33.0371C74.9485 33.8459 74.6798 34.5905 74.2809 35.2709C73.8878 35.9458 73.3807 36.5297 72.7603 37.0225C72.1456 37.51 71.4421 37.8876 70.6499 38.1555C69.8579 38.4233 68.9936 38.5572 68.0575 38.5572C66.584 38.5572 65.2711 38.2198 64.1187 37.5448C62.9666 36.8645 62.0581 35.8922 61.3934 34.628C60.7341 33.3639 60.4047 31.8559 60.4047 30.1043C60.4047 28.3472 60.737 26.8393 61.4017 25.5805C62.0665 24.3163 62.975 23.3467 64.1271 22.6718C65.2795 21.9915 66.5895 21.6513 68.0575 21.6513C68.9603 21.6513 69.8023 21.7772 70.5833 22.0289C71.3701 22.2754 72.0762 22.6396 72.7021 23.1217C73.3281 23.5985 73.8461 24.1824 74.256 24.8734C74.6659 25.5591 74.943 26.3438 75.087 27.2277Z" fill="#7E7E7E"/>
<path d="M79.0406 31.0042V38.3322H76.5562V21.8763H79.0073V27.9991H79.1652C79.4643 27.3348 79.9214 26.8072 80.5361 26.4161C81.151 26.0251 81.9543 25.8296 82.9458 25.8296C83.8211 25.8296 84.5854 26.0037 85.2391 26.3519C85.8983 26.7 86.408 27.2197 86.7681 27.9107C87.1337 28.5963 87.3165 29.4534 87.3165 30.4819V38.3322H84.8321V30.7712C84.8321 29.8659 84.5911 29.1641 84.109 28.666C83.6271 28.1624 82.9568 27.9107 82.0983 27.9107C81.5111 27.9107 80.9847 28.0312 80.5196 28.2723C80.0597 28.5133 79.6969 28.8669 79.4311 29.3329C79.1707 29.7936 79.0406 30.3507 79.0406 31.0042Z" fill="#7E7E7E"/>
<path d="M92.9423 38.6056C92.1335 38.6056 91.4025 38.461 90.7488 38.1717C90.0951 37.8771 89.5771 37.4513 89.1949 36.8941C88.8183 36.337 88.63 35.6541 88.63 34.8452C88.63 34.1488 88.7683 33.5757 89.0454 33.1257C89.3222 32.6757 89.6962 32.3195 90.1671 32.057C90.638 31.7945 91.1642 31.5963 91.7459 31.4624C92.3276 31.3285 92.9203 31.2267 93.524 31.1571C94.2885 31.0713 94.9089 31.0017 95.3853 30.9481C95.8617 30.8892 96.208 30.7955 96.424 30.6669C96.6398 30.5384 96.748 30.3295 96.748 30.0402V29.9839C96.748 29.2822 96.5429 28.7385 96.133 28.3528C95.7287 27.9671 95.125 27.7743 94.3217 27.7743C93.4852 27.7743 92.826 27.9537 92.3441 28.3126C91.8677 28.6662 91.5382 29.0599 91.3554 29.4938L89.0205 28.9795C89.2973 28.2296 89.7017 27.6243 90.2336 27.1636C90.7708 26.6976 91.3886 26.3601 92.0866 26.1512C92.7846 25.9369 93.5185 25.8298 94.2885 25.8298C94.7981 25.8298 95.3382 25.8887 95.9089 26.0066C96.4848 26.119 97.0222 26.3279 97.5206 26.6333C98.0248 26.9386 98.4375 27.3752 98.7589 27.943C99.08 28.5055 99.2408 29.2367 99.2408 30.1366V38.3324H96.8145V36.6451H96.7147C96.5542 36.9558 96.3132 37.2611 95.9919 37.5611C95.6705 37.861 95.2578 38.1101 94.7539 38.3083C94.2497 38.5065 93.646 38.6056 92.9423 38.6056ZM93.4826 36.6772C94.1693 36.6772 94.7565 36.546 95.2439 36.2835C95.737 36.021 96.111 35.6782 96.3656 35.255C96.6262 34.8264 96.7564 34.3684 96.7564 33.881V32.29C96.6676 32.3757 96.4961 32.4561 96.2412 32.5311C95.9919 32.6007 95.7067 32.6623 95.3853 32.7159C95.064 32.7641 94.751 32.8096 94.4464 32.8525C94.1418 32.89 93.887 32.9221 93.6819 32.9489C93.2 33.0078 92.7595 33.1069 92.3608 33.2462C91.9675 33.3855 91.6516 33.5864 91.4135 33.8488C91.1807 34.106 91.0644 34.4488 91.0644 34.8773C91.0644 35.4719 91.2917 35.9219 91.7459 36.2272C92.2 36.5272 92.7788 36.6772 93.4826 36.6772Z" fill="#7E7E7E"/>
<path d="M107.104 25.9903V27.9187H100.133V25.9903H107.104ZM102.002 23.0334H104.486V34.7084C104.486 35.1745 104.558 35.5253 104.703 35.761C104.847 35.9914 105.032 36.1494 105.259 36.2351C105.492 36.3155 105.744 36.3556 106.015 36.3556C106.215 36.3556 106.389 36.3422 106.539 36.3155C106.688 36.2887 106.805 36.2672 106.888 36.2512L107.337 38.2358C107.192 38.2894 106.987 38.343 106.722 38.3965C106.456 38.4555 106.123 38.4876 105.724 38.493C105.071 38.5037 104.462 38.3912 103.896 38.1555C103.331 37.9198 102.874 37.5555 102.526 37.0627C102.176 36.5699 102.002 35.9512 102.002 35.2066V23.0334Z" fill="#7E7E7E"/>
<path d="M108.921 38.3322V21.8763H111.406V27.991H111.555C111.699 27.7339 111.907 27.4366 112.179 27.0991C112.45 26.7616 112.827 26.467 113.309 26.2153C113.79 25.9581 114.428 25.8296 115.22 25.8296C116.25 25.8296 117.17 26.0813 117.978 26.5849C118.787 27.0884 119.421 27.8143 119.881 28.7624C120.346 29.7106 120.579 30.8515 120.579 32.1854C120.579 33.5192 120.349 34.6629 119.889 35.6164C119.43 36.5645 118.798 37.2957 117.995 37.81C117.192 38.3189 116.275 38.5733 115.245 38.5733C114.469 38.5733 113.835 38.4474 113.342 38.1956C112.854 37.9439 112.472 37.6492 112.195 37.3118C111.918 36.9743 111.705 36.6743 111.555 36.4119H111.348V38.3322H108.921ZM111.356 32.1612C111.356 33.029 111.486 33.7897 111.747 34.4432C112.007 35.0968 112.384 35.6083 112.876 35.978C113.37 36.3422 113.973 36.5243 114.688 36.5243C115.43 36.5243 116.051 36.3342 116.549 35.9538C117.048 35.5682 117.424 35.0459 117.679 34.387C117.94 33.7281 118.07 32.9862 118.07 32.1612C118.07 31.347 117.942 30.6158 117.688 29.9677C117.438 29.3195 117.062 28.8079 116.557 28.433C116.059 28.058 115.436 27.8705 114.688 27.8705C113.968 27.8705 113.359 28.0499 112.86 28.4089C112.367 28.7678 111.993 29.2686 111.738 29.9114C111.483 30.5542 111.356 31.3042 111.356 32.1612Z" fill="#7E7E7E"/>
<path d="M125.679 38.6056C124.871 38.6056 124.139 38.461 123.486 38.1717C122.832 37.8771 122.314 37.4513 121.932 36.8941C121.555 36.337 121.367 35.6541 121.367 34.8452C121.367 34.1488 121.505 33.5757 121.782 33.1257C122.059 32.6757 122.433 32.3195 122.904 32.057C123.375 31.7945 123.901 31.5963 124.483 31.4624C125.065 31.3285 125.657 31.2267 126.261 31.1571C127.025 31.0713 127.646 31.0017 128.122 30.9481C128.599 30.8892 128.945 30.7955 129.161 30.6669C129.377 30.5384 129.485 30.3295 129.485 30.0402V29.9839C129.485 29.2822 129.28 28.7385 128.87 28.3528C128.466 27.9671 127.862 27.7743 127.059 27.7743C126.222 27.7743 125.563 27.9537 125.081 28.3126C124.605 28.6662 124.275 29.0599 124.092 29.4938L121.757 28.9795C122.034 28.2296 122.439 27.6243 122.971 27.1636C123.508 26.6976 124.126 26.3601 124.824 26.1512C125.522 25.9369 126.255 25.8298 127.025 25.8298C127.535 25.8298 128.075 25.8887 128.646 26.0066C129.222 26.119 129.759 26.3279 130.258 26.6333C130.762 26.9386 131.174 27.3752 131.496 27.943C131.817 28.5055 131.978 29.2367 131.978 30.1366V38.3324H129.551V36.6451H129.452C129.291 36.9558 129.05 37.2611 128.729 37.5611C128.407 37.861 127.995 38.1101 127.491 38.3083C126.987 38.5065 126.383 38.6056 125.679 38.6056ZM126.22 36.6772C126.906 36.6772 127.493 36.546 127.981 36.2835C128.474 36.021 128.848 35.6782 129.103 35.255C129.363 34.8264 129.493 34.3684 129.493 33.881V32.29C129.405 32.3757 129.233 32.4561 128.978 32.5311C128.729 32.6007 128.444 32.6623 128.122 32.7159C127.801 32.7641 127.488 32.8096 127.183 32.8525C126.879 32.89 126.624 32.9221 126.419 32.9489C125.937 33.0078 125.497 33.1069 125.098 33.2462C124.704 33.3855 124.389 33.5864 124.15 33.8488C123.918 34.106 123.801 34.4488 123.801 34.8773C123.801 35.4719 124.029 35.9219 124.483 36.2272C124.937 36.5272 125.516 36.6772 126.22 36.6772Z" fill="#7E7E7E"/>
<path d="M143.447 29.0037L141.195 29.3893C141.101 29.1108 140.951 28.8456 140.746 28.5939C140.547 28.3421 140.275 28.1359 139.932 27.9752C139.589 27.8145 139.159 27.7341 138.644 27.7341C137.941 27.7341 137.353 27.8868 136.883 28.1921C136.412 28.4921 136.176 28.8804 136.176 29.3572C136.176 29.7697 136.334 30.1018 136.65 30.3535C136.966 30.6053 137.475 30.8116 138.179 30.9723L140.206 31.4222C141.381 31.6847 142.256 32.0891 142.832 32.6355C143.408 33.1819 143.696 33.8917 143.696 34.7648C143.696 35.5041 143.474 36.163 143.031 36.7415C142.594 37.3147 141.982 37.7646 141.195 38.0914C140.414 38.4181 139.508 38.5815 138.478 38.5815C137.049 38.5815 135.883 38.2869 134.98 37.6977C134.077 37.1031 133.523 36.2594 133.318 35.1666L135.719 34.813C135.869 35.4184 136.176 35.8764 136.642 36.1871C137.107 36.4924 137.714 36.6451 138.461 36.6451C139.276 36.6451 139.927 36.4817 140.414 36.1549C140.901 35.8228 141.145 35.4184 141.145 34.9416C141.145 34.5559 140.996 34.2319 140.696 33.9694C140.403 33.7069 139.952 33.5087 139.342 33.3748L137.182 32.9168C135.991 32.6543 135.11 32.2365 134.54 31.6633C133.974 31.0901 133.692 30.3643 133.692 29.4858C133.692 28.7572 133.902 28.1198 134.323 27.5734C134.744 27.027 135.326 26.6011 136.068 26.2958C136.81 25.9851 137.661 25.8298 138.619 25.8298C139.998 25.8298 141.084 26.119 141.877 26.6976C142.669 27.2707 143.192 28.0394 143.447 29.0037Z" fill="#7E7E7E"/>
<path d="M150.525 38.5815C149.267 38.5815 148.184 38.3217 147.276 37.8021C146.373 37.2772 145.675 36.5406 145.182 35.5925C144.694 34.639 144.451 33.5221 144.451 32.2418C144.451 30.9776 144.694 29.8634 145.182 28.8992C145.675 27.935 146.362 27.1824 147.242 26.6413C148.129 26.1003 149.165 25.8298 150.35 25.8298C151.07 25.8298 151.768 25.9449 152.444 26.1753C153.12 26.4056 153.726 26.7672 154.264 27.26C154.801 27.7529 155.225 28.393 155.535 29.1804C155.845 29.9625 156 30.9133 156 32.0329V32.8846H145.855V31.0848H153.566C153.566 30.4527 153.433 29.8929 153.167 29.4054C152.901 28.9126 152.527 28.5242 152.045 28.2403C151.569 27.9564 151.009 27.8145 150.367 27.8145C149.669 27.8145 149.059 27.9805 148.539 28.3126C148.023 28.6394 147.625 29.0679 147.342 29.5982C147.065 30.1232 146.927 30.6937 146.927 31.3097V32.7159C146.927 33.5408 147.076 34.2426 147.375 34.8211C147.68 35.3996 148.104 35.8415 148.647 36.1469C149.189 36.4469 149.824 36.5969 150.55 36.5969C151.02 36.5969 151.45 36.5326 151.837 36.404C152.225 36.2701 152.56 36.0719 152.843 35.8094C153.125 35.5469 153.341 35.2228 153.491 34.8372L155.842 35.2469C155.654 35.9166 155.316 36.5031 154.829 37.0067C154.347 37.5048 153.74 37.8932 153.009 38.1717C152.283 38.4449 151.455 38.5815 150.525 38.5815Z" fill="#7E7E7E"/>
</g>
<defs>
<clipPath id="clip0_2053_10667">
<rect width="132" height="28" fill="white" transform="translate(24 16)"/>
</clipPath>
</defs>
</svg>

<svg xmlns="http://www.w3.org/2000/svg" width="180" height="60" fill="none" viewBox="0 0 180 60"><g fill="#7e7e7e" clip-path="url(#a)"><path fill-rule="evenodd" d="M31.333 16h13.881c4.05 0 7.334 3.22 7.334 7.193v13.614c0 3.973-3.284 7.193-7.334 7.193h-13.88C27.283 44 24 40.78 24 36.807V23.193C24 19.22 27.283 16 31.333 16m10.182 11.937h4.616q-.131-1.54-.745-2.732a6.2 6.2 0 0 0-1.62-2.006 7.1 7.1 0 0 0-2.341-1.25q-1.334-.426-2.922-.426-2.259 0-4.092.975-1.834.966-2.914 2.86-1.08 1.887-1.08 4.642 0 2.739 1.055 4.633 1.065 1.894 2.89 2.869 1.833.975 4.141.975 1.842 0 3.233-.556t2.333-1.467a7 7 0 0 0 1.464-1.998q.516-1.088.598-2.135l-4.616-.033a2.9 2.9 0 0 1-.32.96q-.228.419-.597.717a2.7 2.7 0 0 1-.867.459q-.5.153-1.13.153-1.105 0-1.89-.508-.786-.516-1.203-1.53-.41-1.025-.41-2.54 0-1.432.401-2.457.41-1.023 1.195-1.571.795-.548 1.94-.548.655 0 1.17.185.516.178.876.516.369.33.573.79.213.459.262 1.023" clip-rule="evenodd"/><path d="M75.087 27.228h-2.593a3.8 3.8 0 0 0-.556-1.415 4 4 0 0 0-.997-1.036 4.4 4.4 0 0 0-1.322-.643 5.3 5.3 0 0 0-1.537-.217q-1.47 0-2.634.715-1.155.715-1.828 2.098-.664 1.381-.664 3.374 0 2.01.664 3.391.673 1.383 1.837 2.09t2.617.706a5.5 5.5 0 0 0 1.529-.209 4.5 4.5 0 0 0 1.321-.634q.59-.42.997-1.02.416-.612.573-1.399l2.593.008a6.6 6.6 0 0 1-.806 2.234 6.2 6.2 0 0 1-1.52 1.752 7 7 0 0 1-2.111 1.133 8 8 0 0 1-2.593.401q-2.21 0-3.938-1.012-1.727-1.02-2.726-2.917-.988-1.896-.988-4.524 0-2.636.997-4.523.997-1.897 2.725-2.91 1.73-1.02 3.93-1.02a8.2 8.2 0 0 1 2.526.378q1.18.369 2.12 1.093a6.1 6.1 0 0 1 1.553 1.751q.615 1.028.831 2.355M79.04 31.004v7.328h-2.484V21.876h2.451V28h.158a3.6 3.6 0 0 1 1.371-1.583q.922-.585 2.41-.586 1.313 0 2.293.522.99.522 1.53 1.559.547 1.028.547 2.57v7.851h-2.484v-7.56q0-1.359-.723-2.106-.723-.756-2.01-.755a3.4 3.4 0 0 0-1.58.361q-.69.362-1.088 1.06-.39.693-.39 1.672M92.942 38.606q-1.213 0-2.193-.434a3.66 3.66 0 0 1-1.554-1.278q-.565-.836-.565-2.049 0-1.045.415-1.72.416-.675 1.122-1.068.706-.394 1.579-.595a16 16 0 0 1 1.778-.305l1.861-.209q.715-.088 1.039-.281t.324-.627v-.056q0-1.053-.615-1.631-.606-.579-1.811-.579-1.255 0-1.978.539-.714.53-.989 1.18l-2.335-.513q.416-1.126 1.214-1.816a5 5 0 0 1 1.853-1.013 7.5 7.5 0 0 1 2.201-.321q.765 0 1.62.177a4.8 4.8 0 0 1 1.613.626q.755.459 1.238 1.31.482.844.482 2.194v8.195h-2.427v-1.687h-.1a3.4 3.4 0 0 1-.722.916q-.482.45-1.238.747-.756.298-1.812.298m.54-1.929q1.031 0 1.762-.394.74-.393 1.122-1.028a2.6 2.6 0 0 0 .39-1.374V32.29q-.132.129-.515.241-.374.104-.856.185-.482.072-.939.136l-.764.097a6.3 6.3 0 0 0-1.321.297q-.591.21-.948.603-.349.386-.349 1.028 0 .893.682 1.35.681.45 1.737.45M107.104 25.99v1.929h-6.971V25.99zm-5.102-2.957h2.484v11.675q0 .7.217 1.053.216.345.556.474.35.12.756.12.3 0 .524-.04t.349-.064l.449 1.985q-.217.08-.615.16a5 5 0 0 1-.998.097 4.5 4.5 0 0 1-1.828-.337 3.1 3.1 0 0 1-1.37-1.093q-.525-.74-.524-1.856zM108.921 38.332V21.876h2.485v6.115h.149q.216-.385.624-.892.407-.506 1.13-.884.722-.385 1.911-.385 1.546 0 2.758.755 1.213.756 1.903 2.177.698 1.424.698 3.423 0 2.001-.69 3.431-.689 1.423-1.894 2.194-1.205.763-2.75.763-1.164 0-1.903-.377-.732-.378-1.147-.884a7 7 0 0 1-.64-.9h-.207v1.92zm2.435-6.17q0 1.301.391 2.281.39.98 1.129 1.535.74.546 1.812.546 1.114 0 1.861-.57.748-.579 1.13-1.567.391-.988.391-2.226 0-1.221-.382-2.193-.374-.972-1.131-1.535-.747-.562-1.869-.562-1.08 0-1.828.538-.74.539-1.122 1.502-.382.965-.382 2.25M125.679 38.606q-1.213 0-2.193-.434a3.66 3.66 0 0 1-1.554-1.278q-.565-.836-.565-2.049 0-1.045.415-1.72a3 3 0 0 1 1.122-1.068q.706-.394 1.579-.595a16 16 0 0 1 1.778-.305l1.861-.209q.715-.088 1.039-.281t.324-.627v-.056q0-1.053-.615-1.631-.606-.579-1.811-.579-1.255 0-1.978.539-.714.53-.989 1.18l-2.335-.513q.416-1.126 1.214-1.816a5 5 0 0 1 1.853-1.013 7.5 7.5 0 0 1 2.201-.321q.765 0 1.621.177a4.8 4.8 0 0 1 1.612.626q.756.459 1.238 1.31.482.844.482 2.194v8.195h-2.427v-1.687h-.099q-.241.466-.723.916-.483.45-1.238.747-.756.298-1.812.298m.541-1.929q1.029 0 1.761-.394.74-.393 1.122-1.028.39-.643.39-1.374V32.29q-.132.129-.515.241-.373.104-.856.185-.482.072-.939.136l-.764.097a6.3 6.3 0 0 0-1.321.297 2.3 2.3 0 0 0-.948.603q-.349.386-.349 1.028 0 .893.682 1.35.681.45 1.737.45M143.447 29.004l-2.252.385a2.6 2.6 0 0 0-.449-.795 2.2 2.2 0 0 0-.814-.619q-.515-.24-1.288-.24-1.055 0-1.761.457-.707.45-.707 1.165 0 .62.474.997t1.529.618l2.027.45q1.762.394 2.626 1.213t.864 2.13q0 1.11-.665 1.977-.656.86-1.836 1.35-1.172.49-2.717.49-2.144 0-3.498-.884-1.355-.893-1.662-2.531l2.401-.354q.224.907.923 1.374.698.458 1.819.458 1.223 0 1.953-.49.73-.499.731-1.213 0-.579-.449-.973-.44-.393-1.354-.594l-2.16-.458q-1.787-.394-2.642-1.254-.849-.86-.848-2.177 0-1.093.631-1.913.632-.82 1.745-1.277 1.113-.465 2.551-.466 2.069 0 3.258.868 1.188.859 1.57 2.306M150.525 38.582q-1.887 0-3.249-.78a5.36 5.36 0 0 1-2.094-2.21q-.732-1.43-.731-3.35 0-1.896.731-3.343.74-1.446 2.06-2.258 1.33-.81 3.108-.811 1.08 0 2.094.345t1.82 1.085 1.271 1.92q.465 1.173.465 2.853v.852h-10.145v-1.8h7.711q0-.948-.399-1.68a2.96 2.96 0 0 0-1.122-1.165q-.714-.426-1.678-.425-1.047 0-1.828.498a3.4 3.4 0 0 0-1.197 1.285 3.6 3.6 0 0 0-.415 1.712v1.406q0 1.238.448 2.105.458.868 1.272 1.326.814.45 1.903.45.706 0 1.287-.193a2.8 2.8 0 0 0 1.006-.595q.423-.393.648-.972l2.351.41a4.1 4.1 0 0 1-1.013 1.76q-.723.747-1.82 1.165-1.089.41-2.484.41"/></g><defs><clipPath id="a"><path fill="#fff" d="M24 16h132v28H24z"/></clipPath></defs></svg>
